X:1
T: Red Jaspar
C:C Sherrit
R:Jig
Q:180
K:A
M:6/8
L:1/16
e2|:a4e2 c4e2|f2d2f2 a2g2f2|e2f2e2 c4A2|B2c2d2 e2f2g2|
a4e2 c4e2|f2d2f2 a2f2d2|e2f2e2 d2B2G2|1A6 A4e2:|2A6 A4c2|
|:B2d2d2 G4B2|c2A2A2 e4c2|^d2e2f2 B2c2d2|
|1e4f2 g2e2d2|B2d2d2 G4B2|c2A2A2 e4c2|d2e2f2 e2f2g2|a6a4c2:|
|2e4f2 g2f2g2|a4e2 c4e2|f2d2f2 a2f2d2|e2f2e2 d2B2G2|A6A4||
